outputs/icons/communication/priority_sharp.svg

<svg xmlns="http://www.w3.org/2000/svg" width="1200" height="1200" fill="none"><g fill="#000" clip-path="url(#a)"><path d="M700 150H500v600h200zM700 950c0 55.23-44.77 100-100 100s-100-44.77-100-100 44.77-100 100-100 100 44.77 100 100"/></g><defs><clipPath id="a"><path fill="#fff" d="M0 0h1200v1200H0z"/></clipPath></defs></svg>

<svg width="1200" height="1200" viewBox="0 0 1200 1200" fill="none" xmlns="http://www.w3.org/2000/svg"><g clip-path="url(#clip0_133_10)"><path fill-rule="evenodd" d="M700 150H500V750H700V150ZM700 950C700 1005.23 655.23 1050 600 1050C544.77 1050 500 1005.23 500 950C500 894.77 544.77 850 600 850C655.23 850 700 894.77 700 950Z" fill="#1D1E23"/></g><defs><clipPath id="clip0_133_10"><path width="24" fill="white" d="M0 0H1200V1200H0V0z"/></clipPath></defs></svg>
